packages/kaspersky-hexa-ui-icons/src/iconsSVGs/32/LoginPasswordCircle.svg

<svg xmlns="http://www.w3.org/2000/svg" width="32" height="32" fill="none" viewBox="0 0 32 32"><path fill="#000" fill-rule="evenodd" d="M30 16c0 7.732-6.268 14-14 14S2 23.732 2 16 8.268 2 16 2s14 6.268 14 14m-2 0c0 6.6274-5.3726 12-12 12S4 22.6274 4 16 9.3726 4 16 4s12 5.3726 12 12m-11.9091 5.2273h1.3636V22c0 .5523.4478 1 1 1H22c.5523 0 1-.4477 1-1v-2.6591c0-.2652-.1054-.5196-.2929-.7071l-4.5262-4.5263a5.16 5.16 0 0 0 .0918-.9711C18.2727 10.2996 15.9731 8 13.1364 8S8 10.2996 8 13.1364c0 2.8367 2.2996 5.1363 5.1364 5.1363a5.14 5.14 0 0 0 1.447-.2069l.5075.5075v1.654c0 .5523.4477 1 1 1M10 13.1364C10 11.4042 11.4042 10 13.1364 10c1.7321 0 3.1363 1.4042 3.1363 3.1364 0 .3395-.0536.6645-.152.9682a1 1 0 0 0 .2442 1.0154L21 19.7551V21h-1.5455v-.7727c0-.5523-.4477-1-1-1h-1.3636v-1.0682a1 1 0 0 0-.2929-.7071l-1.2519-1.2519a1 1 0 0 0-1.1192-.2041 3.12 3.12 0 0 1-1.2905.2767c-1.7322 0-3.1364-1.4042-3.1364-3.1363M14 13c0 .5523-.4477 1-1 1s-1-.4477-1-1 .4477-1 1-1 1 .4477 1 1"/></svg>

<svg width="32" height="32" viewBox="0 0 32 32" fill="none" xmlns="http://www.w3.org/2000/svg">
<path d="M14 13C14 13.5523 13.5523 14 13 14C12.4477 14 12 13.5523 12 13C12 12.4477 12.4477 12 13 12C13.5523 12 14 12.4477 14 13Z" fill="black"/>
<path fill-rule="evenodd" clip-rule="evenodd" d="M16.0909 21.2273H17.4545V22C17.4545 22.5523 17.9023 23 18.4545 23H22C22.5523 23 23 22.5523 23 22V19.3409C23 19.0757 22.8946 18.8213 22.7071 18.6338L18.1809 14.1075C18.2412 13.7925 18.2727 13.4678 18.2727 13.1364C18.2727 10.2996 15.9731 8 13.1364 8C10.2996 8 8 10.2996 8 13.1364C8 15.9731 10.2996 18.2727 13.1364 18.2727C13.6379 18.2727 14.1237 18.2006 14.5834 18.0658L15.0909 18.5733V20.2273C15.0909 20.7796 15.5386 21.2273 16.0909 21.2273ZM10 13.1364C10 11.4042 11.4042 10 13.1364 10C14.8685 10 16.2727 11.4042 16.2727 13.1364C16.2727 13.4759 16.2191 13.8009 16.1207 14.1046C16.0049 14.462 16.0992 14.8543 16.3649 15.12L21 19.7551V21H19.4545V20.2273C19.4545 19.675 19.0068 19.2273 18.4545 19.2273H17.0909V18.1591C17.0909 17.8939 16.9856 17.6395 16.798 17.452L15.5461 16.2001C15.2518 15.9058 14.8061 15.8245 14.4269 15.996C14.0346 16.1734 13.5984 16.2727 13.1364 16.2727C11.4042 16.2727 10 14.8685 10 13.1364Z" fill="black"/>
<path fill-rule="evenodd" clip-rule="evenodd" d="M16 30C23.732 30 30 23.732 30 16C30 8.26801 23.732 2 16 2C8.26801 2 2 8.26801 2 16C2 23.732 8.26801 30 16 30ZM16 28C22.6274 28 28 22.6274 28 16C28 9.37258 22.6274 4 16 4C9.37258 4 4 9.37258 4 16C4 22.6274 9.37258 28 16 28Z" fill="black"/>
</svg>
